X:1
T:Why Ring These Merry Bells To-day?
T:Why Ring These Merry Bells To-day?
T:Adam Geibel
C:Adam Geibel
%%score [ 1 2 3 4 ]
L:1/8
Q:1/4=120
M:4/4
K:Eb
V:1 treble nm="Soprano" snm="S"
V:2 treble nm="Alto" snm="A"
V:3 treble-8 nm="Tenor" snm="T"
V:4 bass nm="Bass" snm="B"
V:1
"^Words by Mrs. A. Godshall" z4"^Not too fast" z2!p! (EG) | B2 B2 (B=A) (Be) | B3 G B2 G2 | %3
w: 1.Why *|ring these mer- * ry *|bells to- day? Why|
 F2 (F!<(!G)!<)! A2 (AB) | (dc) (BA) G2!p! (EG) | B2 B2 (B=A) (Be) | B3 G B2 G2 | %7
w: pour they * forth their *|joy- * ous * lay? It *|is the day * our *|Christ was born, The|
"^cresc." F3 F (DF) (Bd) |!f! f3 =A !fermata!B2!p! B2 | B3 B"^cresc." c2 d2 | e2 e2!f! e2 f2 | %11
w: bright and hap- * py *|Christ- mas morn. And|thus they bear the|glad- some strain, O'er|
"^rit." e4 d4 | !fermata!e6 B2 |"^CHORUS, with animation" B2 z2 B2 z2 | B2 z2 B2!f! e2 | %15
w: hill and|plain. (1..3)Then-|ring, ring,|ring, ring, Then|
 !>!d3"^dim." d c2 d2 | e2 G2 B2 c2 | B2 z2 B2 z2 |"^cresc." B2 e2 e2 f2 | e4 d4 | e2 z2 z2 B2 | %21
w: ring, ye mer- ry|Christ- mas bells, Then|ring, ring,|ring, ye mer- ry|Christ- mas|bells, Then|
 B2 z2 B2 z2 | B2 z2 B2!f! e2 | !>!d3"^dim." d c3 d | e2 G2 B2 c2 | B2 z2 B2 z2 | %26
w: ring, ring,|ring, ring, Then|ring, ye mer- ry|Christ- mas bells, Then|ring, ring,|
"^cresc." B2 e2 e2 f2 | e4 d4 |!f! e2 d2 e2 d2 | e2 d2 e2 d2 | e2 z2 z4 |"^rit."!ff! e6 e2 | %32
w: ring, ye mer- ry|Christ- mas|bells, ye mer- ry|bells, ye mer- ry|bells,|Christ- mas|
 !fermata![eg]6 z2 |] %33
w: bells.|
V:2
 z4 z2!p! E2 | G2 G2 (G^F) G2 | G3 E G2 E2 | D2!<(! (DE)!<)! F2 (FG) | (BA) (GF) E2!p! E2 | %5
w: 2.Oh,|should we not * his|praise pro- claim, And|sing the * glo- ry *|of * his * name; The|
 G2 G2 (G^F) G2 | G3 E G2 E2 |"^cresc." D3 D D2 F2 |!f! F3 E !fermata!D2!p! F2 | %9
w: an- gels came * from|heav'n a- bove, To|tell the won- ders|of his love. The|
 F3 F"^cresc." F2 B2 | B2 G2!f! A2 A2 |"^rit." G4 F4 | !fermata!G6 G2 | A2 z2 A2 z2 | %14
w: proph- ets brought their|gifts of gold, And|wealth un-|told. (1..3)Then|ring, ring,|
 G2 z2 G2!f! G2 | !>!A3"^dim." A A2 A2 | G2 E2 G2 G2 | A2 z2 A2 z2 |"^cresc." G2 G2 A2 A2 | G4 F4 | %20
w: ring, ring, Then|ring, ye mer- ry|Christ- mas bells, Then|ring, ring,|ring, ye mer- ry|Christ- mas|
 G2 z2 z2 G2 | A2 z2 A2 z2 | G2 z2 G2!f! G2 | !>!F3"^dim." F A3 A | G2 E2 G2 G2 | A2 z2 A2 z2 | %26
w: bells, Then|ring, ring,|ring, ring, Then|ring, ye mer- ry|Christ- mas bells, Then|ring, ring,|
"^cresc." G2 G2 A2 A2 | G4 F4 |!f! G2 F2 G2 F2 | G2 F2 G2 F2 | G2 z2 z4 |"^rit."!ff! A6 A2 | %32
w: ring, ye mer- ry|Christ- mas|bells, ye mer- ry|bells, ye mer- ry|bells,|Christ- mas|
 !fermata!G6 z2 |] %33
w: bells.|
V:3
 z4 z2!p! (GB) | e2 e2 e2 e2 | e3 B e2 B2 | B2!<(! B2!<)! B2 B2 | B2 B2 B2!p! (GB) | e2 e2 e2 e2 | %6
w: 3.We'll *|twine the i- vy|wreath to- day, And|laur- els strew a-|long the way, That *|all the world may|
 e3 B e2 B2 |"^cresc." B3 B B2 (dB) |!f! =A3 c !fermata!B2!p! d2 | d3 d"^cresc." e2 f2 | %10
w: know and see What|Christ has done for *|you and me; That|we, by show- ing|
 e2 _d2!f! c2 c2 |"^rit." B4 B4 | !fermata!B6 e2 | f2 z2 f2 z2 | e2 z2 e2!f! B2 | %15
w: forth our love, Its|heart may|move. (1..3)Then|ring, ring,|ring, ring, Then|
 !>!B3"^dim." B B2 B2 | B2 B2 e2 e2 | f2 z2 f2 z2 |"^cresc." e2 e2 e2 c2 | B4 B4 | B2 z2 z2 e2 | %21
w: ring, ye mer- ry|Christ- mas bells, Then|ring, ring,|ring, ye mer- ry|Christ- mas|bells, Then|
 f2 z2 f2 z2 | e2 z2 e2!f! B2 | !>!B3"^dim." B B3 B | B2 B2 e2 e2 | f2 z2 f2 z2 | %26
w: ring, ring,|ring, ring, Then|ring, ye mer- ry|Christ- mas bells, Then|ring, ring,|
"^cresc." e2 e2 e2 c2 | B4 B4 |!f! B2 B2 B2 B2 | B2 B2 B2 B2 | B2 z2 z4 |"^rit."!ff! c6 c2 | %32
w: ring, ye mer- ry|Christ- mas|bells, ye mer- ry|bells, ye mer- ry|bells,|Christ- mas|
 !fermata!B6 z2 |] %33
w: bells.|
V:4
 z4 z2!p! E,2 | E,2 E,2 E,2 E,2 | E,3 E, E,2 E,2 | B,,2 B,,2!<)!!<(! B,,2 B,,2 | %4
w: 1.Why|ring these mer- ry|bells to- day? Why|pour they forth their|
 B,,2 B,,2 E,2!p! E,2 | E,2 E,2 E,2 E,2 | E,3 E, E,2 E,2 |"^cresc." F,3 F, F,2 F,2 | %8
w: joy- ous lay? It|is the day our|Christ was born, The|bright and hap- py|
!f! F,3 F, !fermata!B,,2!p! B,2 | B,3 B,"^cresc." =A,2 _A,2 | G,2 E,2!f! A,2 F,2 | %11
w: Christ- mas morn. And|thus they bear the|glad- some strain, O'er|
"^rit." B,4 B,,4 | !fermata!E,6 E,2 | D,2 B,,2 D,2 B,,2 | E,2 B,,2 E,2!f! E,2 | %15
w: hill and|plain. (1..3)Then|ring, ye mer- ry|Christ- mas bells, Then|
 !>!F,3"^dim." F, B,,2 B,,2 | E,2 E,2 E,2 E,2 | D,2 B,,2 D,2 B,,2 |"^cresc." E,2 _D2 C2 A,2 | %19
w: ring, ye mer- ry|Christ- mas bells, Then|ring, ye mer- ry,|ring, ye mer- ry|
 B,4 B,,4 | E,2 B,2 G,2 E,2 | D,2 B,,2 D,2 B,,2 | E,2 B,,2 E,2!f! E,2 | !>!F,3"^dim." F, B,,3 B,, | %24
w: Christ- mas|bells, ye bells, Then|ring, ye mer- ry|Christ- mas bells, Then|ring, ye mer- ry|
 E,2 E,2 E,2 E,2 | D,2 B,,2 D,2 B,,2 |"^cresc." E,2 _D2 C2 A,2 | B,4 B,,4 |!f! E,2 B,,2 E,2 B,,2 | %29
w: Christ- mas bells, Then|ring, ye mer- ry,|ring, ye mer- ry|Christ- mas|bells, ye mer- ry|
 E,2 B,,2 E,2 B,,2"^- 2 -" | E,2 z2 z4 |"^rit."!ff! A,6 A,2 | !fermata!E,6 z2 |] %33
w: bells, ye mer- ry|bells,|Christ- mas|bells.|

